kora-light/actions/scalable/code-context.svg

<svg xmlns="http://www.w3.org/2000/svg" width="16" height="16" version="1.1">
 <defs>
  <style id="current-color-scheme" type="text/css">
   .ColorScheme-Text { color:#444444; } .ColorScheme-Highlight { color:#4285f4; }
  </style>
 </defs>
 <path style="fill:currentColor" class="ColorScheme-Text" d="M 3,1 C 1.892,1 1,1.892 1,3 V 13 C 1,14.108 1.892,15 3,15 H 13 C 14.108,15 15,14.108 15,13 V 3 C 15,1.892 14.108,1 13,1 Z M 6.6816,3 H 7 V 3.7559 H 6.6465 C 6.1745,3.7559 5.8682,3.835 5.7266,3.9902 5.5816,4.1419 5.5078,4.4679 5.5078,4.9688 V 6.2812 C 5.5078,6.8351 5.4331,7.2363 5.2812,7.4863 5.1296,7.7373 4.8664,7.9061 4.4922,7.9941 4.8664,8.0891 5.1296,8.2627 5.2812,8.5137 5.433,8.7637 5.5078,9.1648 5.5078,9.7148 V 11.027 C 5.5078,11.532 5.5816,11.858 5.7266,12.01 5.8682,12.161 6.1745,12.238 6.6465,12.238 H 7 V 13 H 6.6816 C 5.8422,13 5.2818,12.87 5.002,12.609 4.7188,12.348 4.5781,11.826 4.5781,11.047 V 9.7832 C 4.5781,9.2512 4.4867,8.8817 4.3047,8.6777 4.1226,8.4727 3.7932,8.3711 3.3145,8.3711 H 3 V 7.6133 H 3.3145 C 3.7932,7.6133 4.1226,7.5145 4.3047,7.3125 4.4867,7.1085 4.5781,6.7424 4.5781,6.2168 V 4.9473 C 4.5781,4.1677 4.7188,3.6481 5.002,3.3906 5.2818,3.1296 5.8422,3 6.6816,3 Z M 9,3 H 9.3184 C 10.158,3 10.718,3.1296 10.998,3.3906 11.281,3.6481 11.422,4.1677 11.422,4.9473 V 6.2168 C 11.422,6.7424 11.513,7.1085 11.695,7.3125 11.877,7.5145 12.207,7.6133 12.686,7.6133 H 13 V 8.3711 H 12.686 C 12.207,8.3711 11.877,8.4727 11.695,8.6777 11.513,8.8817 11.422,9.2512 11.422,9.7832 V 11.047 C 11.422,11.826 11.281,12.348 10.998,12.609 10.718,12.87 10.158,13 9.3184,13 H 9 V 12.238 H 9.3535 C 9.8255,12.238 10.132,12.161 10.273,12.01 10.418,11.858 10.492,11.532 10.492,11.027 V 9.7148 C 10.492,9.1648 10.567,8.7637 10.719,8.5137 10.87,8.2627 11.134,8.0891 11.508,7.9941 11.134,7.9061 10.87,7.7373 10.719,7.4863 10.567,7.2363 10.492,6.8351 10.492,6.2812 V 4.9688 C 10.492,4.468 10.418,4.1419 10.273,3.9902 10.132,3.835 9.8255,3.7559 9.3535,3.7559 H 9 Z"/>
</svg>

<svg xmlns="http://www.w3.org/2000/svg" style="fill-rule:evenodd;clip-rule:evenodd;stroke-linejoin:round;stroke-miterlimit:2" width="100%" height="100%" version="1.1" viewBox="0 0 16 16" xml:space="preserve">
 <defs>
  <style id="current-color-scheme" type="text/css">
   .ColorScheme-Text { color:#444444; } .ColorScheme-Highlight { color:#4285f4; } .ColorScheme-NeutralText { color:#ff9800; } .ColorScheme-PositiveText { color:#4caf50; } .ColorScheme-NegativeText { color:#f44336; }
  </style>
 </defs>
 <path style="fill:currentColor;fill-opacity:0.3" class="ColorScheme-Text" d="M15.26,3.082c0,-1.293 -1.049,-2.342 -2.342,-2.342l-9.836,0c-1.293,0 -2.342,1.049 -2.342,2.342l0,9.836c0,1.293 1.049,2.342 2.342,2.342l9.836,0c1.293,0 2.342,-1.049 2.342,-2.342l0,-9.836Z"/>
 <path style="fill:currentColor;" class="ColorScheme-Text" d="M6.682,3l0.318,0l0,0.756l-0.354,-0c-0.471,-0 -0.778,0.079 -0.919,0.234c-0.145,0.152 -0.219,0.478 -0.219,0.979l-0,1.312c-0,0.554 -0.075,0.955 -0.227,1.205c-0.151,0.251 -0.415,0.42 -0.789,0.508c0.374,0.095 0.638,0.269 0.789,0.52c0.152,0.25 0.227,0.651 0.227,1.201l-0,1.312c-0,0.505 0.074,0.831 0.219,0.983c0.141,0.151 0.447,0.228 0.919,0.228l0.354,-0l-0,0.762l-0.318,-0c-0.84,-0 -1.4,-0.13 -1.68,-0.391c-0.283,-0.261 -0.424,-0.783 -0.424,-1.562l0,-1.264c0,-0.532 -0.091,-0.901 -0.273,-1.105c-0.182,-0.205 -0.512,-0.307 -0.991,-0.307l-0.314,0l-0,-0.758l0.314,0c0.479,0 0.809,-0.099 0.991,-0.301c0.182,-0.204 0.273,-0.57 0.273,-1.095l0,-1.27c0,-0.779 0.141,-1.299 0.424,-1.556c0.28,-0.261 0.84,-0.391 1.68,-0.391Z"/>
 <path style="fill:currentColor;" class="ColorScheme-Text" d="M9,3l0.318,0c0.84,0 1.4,0.13 1.68,0.391c0.283,0.257 0.424,0.777 0.424,1.556l0,1.27c0,0.525 0.091,0.891 0.273,1.095c0.182,0.202 0.512,0.301 0.991,0.301l0.314,0l0,0.758l-0.314,0c-0.479,0 -0.809,0.102 -0.991,0.307c-0.182,0.204 -0.273,0.573 -0.273,1.105l0,1.264c0,0.779 -0.141,1.301 -0.424,1.562c-0.28,0.261 -0.84,0.391 -1.68,0.391l-0.318,0l0,-0.762l0.354,0c0.472,0 0.778,-0.077 0.919,-0.228c0.145,-0.152 0.219,-0.478 0.219,-0.983l0,-1.312c0,-0.55 0.075,-0.951 0.227,-1.201c0.151,-0.251 0.415,-0.425 0.789,-0.52c-0.374,-0.088 -0.638,-0.257 -0.789,-0.508c-0.152,-0.25 -0.227,-0.651 -0.227,-1.205l0,-1.312c0,-0.501 -0.074,-0.827 -0.219,-0.979c-0.141,-0.155 -0.447,-0.234 -0.919,-0.234l-0.354,-0l0,-0.756Z"/>
</svg>
